;FLAVOR:Marlin
;TIME:7530
;Filament used: 3.06209m
;Layer height: 0.2
;MINX:71.909
;MINY:89.4
;MINZ:0.3
;MAXX:138.1
;MAXY:120.599
;MAXZ:107.9
;Generated with Cura_SteamEngine 5.4.0
M82 ;absolute extrusion mode
;Profil Homepage: https://github.com/NilsRo/Cura_Anycubic_MegaS_Profile

;Slicer Information - (Support for OctoPrint Slicer Estimator)
;Slicer info:material_guid;0ff92885-617b-4144-a03c-9989872454bc
;Slicer info:material_id;generic_pla_175
;Slicer info:material_brand;Generic
;Slicer info:material_name;PLA
;Slicer info:filament_cost;[0.0]
;Slicer info:material_bed_temperature;60
;Slicer info:material_bed_temperature_layer_0;60
;Slicer info:material_print_temperature;200
;Slicer info:material_print_temperature_layer_0;205
;Slicer info:material_flow;100
;Slicer info:layer_height;0.2
;Slicer info:machine_nozzle_size;0.4
;Slicer info:wall_thickness;1.2000000000000002
;Slicer info:speed_print;50.0
;Slicer info:speed_topbottom;25.0
;Slicer info:travel_speed;100.0
;Slicer info:support;0
;Slicer info:retraction_speed;30
;Slicer info:retraction_amount;6
;Slicer info:layer_height;0.2
;Slicer info:infill_pattern;grid
;Slicer info:infill_sparse_density;25
;Slicer info:cool_fan_enabled;True
;Slicer info:cool_fan_speed;100
;Slicer info:sliced_at;Tue 12-03-2024 06:58:20
G21                                        ; metric values 
G90                                        ; absolute positioning 
M82                                        ; set extruder to absolute mode 
M900 K0                                    ; disable lin. adv. if not set in GCODE
M107                                       ; start with the fan off 
M140 S60   ; Start heating the bed 
G4 S60                                     ; wait 1 minute 
M104 S205 ; start heating the hot end 
M190 S60   ; wait for bed 
M109 S205 ; wait for hotend 
M300 S1000 P500                            ; BEEP heating done 
G28 X0 Y10 Z0                              ; move X/Y to min endstops 
G29
;M420 S1                                    ; Enable leveling 
M420 Z2.0                                  ; Set leveling fading height to 2 mm 
G0 Z0.15                                   ; lift nozzle a bit 
G92 E0                                     ; zero the extruded length 
G1 X50 E20 F500                            ; Extrude 20mm of filament in a 5cm line. 
G92 E0                                     ; zero the extruded length again 
G1 E-2 F500                                ; Retract a little 
G1 X50 F500                                ; wipe away from the filament line
G1 X100 F9000                              ; Quickly wipe away from the filament line
G92 E0
G92 E0
G1 F1800 E-6
;LAYER_COUNT:539
;LAYER:0
M106 S76.5
M205 X10 Y10
G1 F480 Z0.375
G0 F6000 X77.33 Y93.184 Z0.375
M205 X8 Y8
;TYPE:SKIRT
G1 F480 Z0.3
G1 F1800 E0
G1 F1200 X78.194 Y92.493 E0.0552
G1 X78.948 Y91.963 E0.10118
G1 X79.74 Y91.48 E0.14746
G1 X80.667 Y90.987 E0.19984
G1 X81.562 Y90.585 E0.24879
G1 X82.441 Y90.254 E0.29565
G1 X83.4 Y89.958 E0.34572
G1 X84.348 Y89.73 E0.39436
G1 X85.28 Y89.567 E0.44157
G1 X86.278 Y89.457 E0.49166
G1 X86.977 Y89.423 E0.52657
G1 X88.284 Y89.4 E0.59179
G1 X131.799 Y89.4 E2.76276
G1 X132.595 Y89.412 E2.80248
G1 X133.238 Y89.461 E2.83465
G1 X133.968 Y89.609 E2.87181
G1 X134.624 Y89.833 E2.9064
G1 X135.205 Y90.112 E2.93855
G1 X135.831 Y90.515 E2.97569
G1 X136.361 Y90.963 E3.01032
G1 X136.801 Y91.435 E3.04251
G1 X137.21 Y91.995 E3.07711
G1 X137.568 Y92.647 E3.11422
G1 X137.806 Y93.246 E3.14637
G1 X137.994 Y93.974 E3.18388
G1 X138.098 Y94.911 E3.23092
G1 X138.1 Y114.333 E4.19989
G1 X138.09 Y115.085 E4.23741
G1 X138.042 Y115.728 E4.26958
G1 X137.908 Y116.409 E4.3042
G1 X137.672 Y117.115 E4.34134
G1 X137.37 Y117.739 E4.37593
G1 X137.022 Y118.282 E4.4081
G1 X136.579 Y118.817 E4.44276
G1 X136.036 Y119.325 E4.47985
G1 X135.514 Y119.704 E4.51204
G1 X134.863 Y120.063 E4.54913
G1 X134.218 Y120.317 E4.58371
G1 X133.537 Y120.492 E4.61879
G1 X132.582 Y120.598 E4.66673
G1 X88.243 Y120.599 E6.87881
G1 X86.804 Y120.575 E6.95061
G1 X85.738 Y120.49 E7.00396
G1 X84.807 Y120.356 E7.05089
G1 X83.742 Y120.127 E7.10524
G1 X82.968 Y119.919 E7.14522
G1 X81.978 Y119.582 E7.1974
G1 X81.007 Y119.169 E7.25004
G1 X80.253 Y118.805 E7.29181
G1 X79.464 Y118.356 E7.3371
G1 X78.631 Y117.823 E7.38644
G1 X77.728 Y117.148 E7.44269
G1 X76.988 Y116.515 E7.49127
G1 X76.289 Y115.834 E7.53996
G1 X75.719 Y115.204 E7.58234
G1 X75.164 Y114.527 E7.62602
G1 X74.539 Y113.668 E7.67902
G1 X73.961 Y112.734 E7.73382
G1 X73.561 Y111.976 E7.77658
G1 X73.124 Y111.036 E7.82829
G1 X72.776 Y110.127 E7.87685
G1 X72.453 Y109.078 E7.93161
G1 X72.224 Y108.118 E7.98085
G1 X72.052 Y107.069 E8.03388
G1 X71.964 Y106.325 E8.07126
G1 X71.909 Y105.223 E8.12631
G1 X71.929 Y104.207 E8.17701
G1 X71.994 Y103.412 E8.2168
G1 X72.131 Y102.374 E8.26904
G1 X72.325 Y101.424 E8.31741
G1 X72.577 Y100.491 E8.36563
G1 X72.964 Y99.361 E8.42522
G1 X73.339 Y98.492 E8.47244
G1 X73.739 Y97.673 E8.51791
G1 X74.304 Y96.705 E8.57383
G1 X74.755 Y96.029 E8.61437
G1 X75.335 Y95.247 E8.66294
G1 X75.969 Y94.506 E8.7116
G1 X76.662 Y93.792 E8.76124
G1 X77.33 Y93.184 E8.8063
M205 X10 Y10
G0 F6000 X77.58 Y93.496
M205 X8 Y8
G1 F1200 X78.424 Y92.82 E8.86025
G1 X79.157 Y92.304 E8.90497
G1 X79.928 Y91.833 E8.95005
G1 X80.831 Y91.352 E9.00109
G1 X81.726 Y90.95 E9.05004
G1 X82.559 Y90.636 E9.09445
G1 X83.494 Y90.347 E9.14328
G1 X84.417 Y90.124 E9.19065
G1 X85.324 Y89.965 E9.23659
G1 X86.298 Y89.857 E9.28548
G1 X86.984 Y89.823 E9.31975
G1 X88.291 Y89.8 E9.38497
G1 X131.793 Y89.8 E11.55529
G1 X132.565 Y89.811 E11.59381
G1 X133.208 Y89.86 E11.62598
G1 X133.84 Y89.988 E11.65815
G1 X134.451 Y90.194 E11.69032
G1 X135.032 Y90.473 E11.72248
G1 X135.574 Y90.822 E11.75464
G1 X136.068 Y91.236 E11.78679
G1 X136.508 Y91.708 E11.81899
G1 X136.886 Y92.23 E11.85114
G1 X137.196 Y92.795 E11.88329
G1 X137.434 Y93.394 E11.91545
G1 X137.596 Y94.018 E11.94761
G1 X137.7 Y94.955 E11.99465
G1 X137.7 Y114.328 E12.96117
G1 X137.691 Y115.055 E12.99744
G1 X137.643 Y115.698 E13.02961
G1 X137.516 Y116.33 E13.06177
G1 X137.311 Y116.942 E13.09397
G1 X137.033 Y117.523 E13.12611
G1 X136.685 Y118.066 E13.15828
G1 X136.272 Y118.561 E13.19044
G1 X135.801 Y119.001 E13.2226
G1 X135.279 Y119.38 E13.25478
G1 X134.715 Y119.691 E13.28692
G1 X134.116 Y119.93 E13.31909
G1 X133.493 Y120.094 E13.35123
G1 X132.538 Y120.2 E13.39917
G1 X88.25 Y120.199 E15.60871
G1 X86.835 Y120.176 E15.67931
G1 X85.795 Y120.094 E15.73136
G1 X84.864 Y119.96 E15.77828
G1 X83.846 Y119.741 E15.83024
G1 X83.097 Y119.54 E15.86892
G1 X82.107 Y119.203 E15.9211
G1 X81.181 Y118.809 E15.97131
G1 X80.427 Y118.445 E16.01308
G1 X79.68 Y118.019 E16.05598
G1 X78.847 Y117.486 E16.10532
G1 X77.988 Y116.844 E16.15882
G1 X77.267 Y116.228 E16.20613
G1 X76.568 Y115.547 E16.25482
G1 X76.028 Y114.95 E16.29498
G1 X75.487 Y114.291 E16.33752
G1 X74.879 Y113.457 E16.38901
G1 X74.315 Y112.547 E16.44242
G1 X73.924 Y111.807 E16.48418
G1 X73.498 Y110.893 E16.53449
G1 X73.15 Y109.984 E16.58305
G1 X72.842 Y108.985 E16.6352
G1 X72.619 Y108.053 E16.68301
G1 X72.449 Y107.022 E16.73514
G1 X72.364 Y106.305 E16.77116
G1 X72.309 Y105.203 E16.82621
G1 X72.328 Y104.239 E16.87432
G1 X72.391 Y103.464 E16.91311
G1 X72.528 Y102.426 E16.96534
G1 X72.717 Y101.504 E17.0123
G1 X72.963 Y100.595 E17.05928
G1 X73.331 Y99.519 E17.11601
G1 X73.698 Y98.667 E17.1623
G1 X74.085 Y97.874 E17.20632
G1 X74.637 Y96.927 E17.26101
G1 X75.088 Y96.251 E17.30155
G1 X75.639 Y95.507 E17.34774
G1 X76.256 Y94.785 E17.39512
G1 X76.949 Y94.071 E17.44476
G1 X77.58 Y93.496 E17.48735
M205 X10 Y10
G1 F1800 E11.48735
G1 F480 Z0.375
;MESH:AquariumEdgePlantHolder_rimmed.stl
G0 F6000 X92.876 Y113.432 Z0.375
M205 X8 Y8
;TYPE:WALL-INNER
G1 F480 Z0.3
G1 F1800 E17.48735
G1 F1200 X91.916 Y114 E17.543
G1 X131.5 Y114 E19.51786
G1 X131.5 Y96 E20.41588
G1 X91.911 Y96 E22.39098
G1 X92.828 Y96.537 E22.444
G1 X93.397 Y96.924 E22.47833
G1 X93.903 Y97.316 E22.51026
G1 X94.323 Y97.687 E22.53822
G1 X94.775 Y98.137 E22.57004
G1 X95.189 Y98.604 E22.60118
G1 X95.602 Y99.139 E22.6349
G1 X95.915 Y99.596 E22.66253
G1 X96.264 Y100.185 E22.69669
G1 X96.557 Y100.76 E22.72888
G1 X96.778 Y101.269 E22.75657
G1 X97.009 Y101.907 E22.79042
G1 X97.182 Y102.493 E22.8209
G1 X97.328 Y103.153 E22.85463
G1 X97.417 Y103.709 E22.88272
G1 X97.482 Y104.399 E22.9173
G1 X97.5 Y105.024 E22.94849
G1 X97.478 Y105.655 E22.97999
G1 X97.42 Y106.261 E23.01036
G1 X97.321 Y106.878 E23.04154
G1 X97.183 Y107.501 E23.07337
G1 X96.993 Y108.154 E23.1073
G1 X96.787 Y108.71 E23.13688
G1 X96.56 Y109.233 E23.16533
G1 X96.249 Y109.844 E23.19953
G1 X95.927 Y110.384 E23.2309
G1 X95.578 Y110.893 E23.26169
G1 X95.189 Y111.396 E23.29341
G1 X94.775 Y111.863 E23.32455
G1 X94.339 Y112.296 E23.35521
G1 X93.916 Y112.673 E23.38347
G1 X93.354 Y113.107 E23.4189
G1 X92.876 Y113.432 E23.44774
M205 X10 Y10
G1 F1800 E17.44774
G1 F480 Z0.375
G0 F6000 X90.484 Y114.124 Z0.375
M205 X8 Y8
G1 F480 Z0.3
G1 F1800 E23.44774
G1 F1200 X89.546 Y114.4 E23.49652
G1 X131.9 Y114.4 E25.60957
G1 X131.9 Y95.6 E26.5475
G1 X89.522 Y95.601 E28.66175
G1 X90.478 Y95.872 E28.71133
G1 X91.043 Y96.077 E28.74131
G1 X91.585 Y96.313 E28.7708
G1 X92.122 Y96.585 E28.80084
G1 X92.656 Y96.902 E28.83182
G1 X93.153 Y97.241 E28.86183
G1 X93.638 Y97.616 E28.89242
G1 X94.084 Y98.012 E28.92217
G1 X94.492 Y98.42 E28.95096
G1 X94.914 Y98.899 E28.98281
G1 X95.272 Y99.365 E29.01213
G1 X95.585 Y99.822 E29.03976
G1 X95.891 Y100.337 E29.06965
G1 X96.19 Y100.92 E29.10234
G1 X96.425 Y101.464 E29.1319
G1 X96.614 Y101.987 E29.15965
G1 X96.808 Y102.647 E29.19397
G1 X96.933 Y103.217 E29.22308
G1 X97.027 Y103.811 E29.25308
G1 X97.08 Y104.375 E29.28134
G1 X97.1 Y105.011 E29.31309
G1 X97.08 Y105.619 E29.34344
G1 X97.03 Y106.161 E29.3706
G1 X96.931 Y106.792 E29.40246
G1 X96.808 Y107.353 E29.43111
G1 X96.617 Y108.016 E29.46554
G1 X96.433 Y108.518 E29.49221
G1 X96.193 Y109.073 E29.52238
G1 X95.924 Y109.606 E29.55216
G1 X95.597 Y110.158 E29.58417
G1 X95.261 Y110.649 E29.61386
G1 X94.915 Y111.1 E29.64222
G1 X94.492 Y111.58 E29.67413
G1 X94.098 Y111.974 E29.70193
G1 X93.616 Y112.402 E29.73409
G1 X93.129 Y112.776 E29.76473
G1 X92.651 Y113.101 E29.79356
G1 X92.102 Y113.426 E29.82539
G1 X91.573 Y113.694 E29.85498
G1 X91.013 Y113.934 E29.88538
G1 X90.484 Y114.124 E29.91342
M205 X10 Y10
G0 F6000 X89.269 Y114.125
M205 X8 Y8
;TYPE:WALL-OUTER
G1 F851.1 X88.694 Y114.193 E29.95415
G1 F914.3 X88.104 Y114.235 E29.99288
G1 F950.5 X87.505 Y114.25 E30.03062
G1 F961.9 X86.91 Y114.231 E30.06767
G1 F960 X86.345 Y114.179 E30.10306
G1 X85.756 Y114.084 E30.14026
G1 F961.9 X85.248 Y113.97 E30.17266
G1 X84.641 Y113.798 E30.21193
G1 X84.096 Y113.601 E30.248
G1 X83.567 Y113.371 E30.2839
G1 X83.053 Y113.111 E30.31975
G1 X82.541 Y112.808 E30.35678
G1 F965.8 X82.058 Y112.476 E30.39311
G1 F967.7 X81.591 Y112.118 E30.42951
G1 F963.9 X81.164 Y111.74 E30.46493
G1 X80.745 Y111.32 E30.50178
G1 X80.363 Y110.886 E30.53769
G1 F961.9 X80.014 Y110.433 E30.57329
G1 X79.693 Y109.961 E30.60881
G1 X79.397 Y109.46 E30.64503
G1 F960 X79.133 Y108.943 E30.68123
G1 F967.7 X78.803 Y108.178 E30.73277
G1 F969.7 X78.534 Y107.277 E30.79082
G1 F963.9 X78.412 Y106.722 E30.82612
G1 X78.322 Y106.149 E30.86215
G1 X78.268 Y105.571 E30.89821
G1 F960 X78.25 Y105.002 E30.93371
G1 X78.269 Y104.429 E30.96946
G1 X78.32 Y103.857 E31.00527
G1 X78.411 Y103.283 E31.04152
G1 F961.9 X78.536 Y102.715 E31.07771
G1 X78.707 Y102.122 E31.11613
G1 X78.901 Y101.59 E31.15137
G1 X79.135 Y101.053 E31.18783
G1 X79.4 Y100.533 E31.22415
G1 X79.696 Y100.034 E31.26026
G1 X80.018 Y99.565 E31.29567
G1 F963.9 X80.374 Y99.102 E31.33194
G1 X80.75 Y98.675 E31.36728
G1 F961.9 X81.16 Y98.264 E31.40341
G1 F963.9 X81.596 Y97.878 E31.43958
G1 F961.9 X82.068 Y97.514 E31.47668
G1 X82.559 Y97.181 E31.51361
G1 X83.047 Y96.892 E31.5489
G1 X83.572 Y96.626 E31.58553
G1 X84.106 Y96.396 E31.62172
G1 F960 X84.637 Y96.205 E31.65691
G1 F967.7 X85.446 Y95.971 E31.70901
G1 F969.7 X86.325 Y95.825 E31.76402
G1 F961.9 X86.913 Y95.769 E31.80079
G1 F960 X87.507 Y95.75 E31.83785
G1 F950.5 X88.086 Y95.764 E31.87433
G1 F916 X88.675 Y95.805 E31.91292
G1 F854.1 X89.246 Y95.873 E31.95322
G1 F973.6 X89.728 Y96.075 E31.98536
G1 F1200 X90.343 Y96.249 E32.01725
G1 X90.884 Y96.444 E32.04594
G1 X91.405 Y96.671 E32.07429
G1 X91.918 Y96.929 E32.10294
G1 X92.431 Y97.233 E32.13269
G1 X92.909 Y97.559 E32.16155
G1 X93.373 Y97.916 E32.19076
G1 X93.801 Y98.295 E32.21928
G1 X94.218 Y98.712 E32.2487
G1 X94.597 Y99.143 E32.27734
G1 X94.942 Y99.591 E32.30555
G1 X95.262 Y100.06 E32.33387
G1 X95.552 Y100.551 E32.36232
G1 X95.823 Y101.079 E32.39193
G1 X96.049 Y101.6 E32.42027
G1 X96.241 Y102.134 E32.44858
G1 X96.418 Y102.733 E32.47974
G1 X96.538 Y103.28 E32.50768
G1 X96.629 Y103.849 E32.53643
G1 X96.682 Y104.413 E32.56469
G1 X96.7 Y104.993 E32.59364
G1 X96.682 Y105.582 E32.62304
G1 X96.63 Y106.137 E32.65085
G1 X96.54 Y106.706 E32.67959
G1 X96.414 Y107.28 E32.70891
G1 X96.246 Y107.865 E32.73927
G1 X96.053 Y108.391 E32.76722
G1 X95.821 Y108.925 E32.79627
G1 X95.561 Y109.436 E32.82488
G1 X95.267 Y109.932 E32.85364
G1 X94.943 Y110.405 E32.88225
G1 X94.589 Y110.867 E32.91128
G1 X94.209 Y111.297 E32.93991
G1 X93.807 Y111.699 E32.96828
G1 X93.384 Y112.076 E32.99654
G1 X92.904 Y112.445 E33.02675
G1 X92.415 Y112.777 E33.05624
G1 X91.921 Y113.069 E33.08487
G1 X91.414 Y113.326 E33.11323
G1 X90.877 Y113.558 E33.14241
G1 X90.37 Y113.74 E33.16928
G1 X89.743 Y113.926 E33.20191
G1 F971.7 X89.269 Y114.125 E33.23359
M205 X10 Y10
G0 F6000 X89.071 Y114.148
G0 X89.331 Y114.706
M205 X8 Y8
G1 F971.7 X89.836 Y114.8 E33.26524
G1 F1200 X132.3 Y114.8 E35.38378
G1 X132.3 Y95.2 E36.36162
G1 X89.824 Y95.2 E38.48076
G1 F973.6 X89.31 Y95.294 E38.51289
G1 F877.5 X88.078 Y95.254 E38.59699
G1 F952.4 X87.502 Y95.25 E38.6332
G1 F960 X86.883 Y95.27 E38.67182
G1 X86.309 Y95.325 E38.70778
G1 X85.668 Y95.425 E38.74824
G1 X85.067 Y95.559 E38.78664
G1 X84.481 Y95.729 E38.82469
G1 X83.895 Y95.942 E38.86357
G1 F961.9 X83.354 Y96.176 E38.90026
G1 X82.78 Y96.47 E38.9404
G1 X82.267 Y96.776 E38.97757
G1 F960 X81.763 Y97.116 E39.01549
G1 F961.9 X81.278 Y97.495 E39.0538
G1 F963.9 X80.815 Y97.904 E39.09217
G1 F961.9 X80.386 Y98.334 E39.12997
G1 F963.9 X79.969 Y98.811 E39.16932
G1 F961.9 X79.644 Y99.231 E39.20238
G1 X79.273 Y99.771 E39.24315
G1 X78.96 Y100.298 E39.2813
G1 X78.671 Y100.867 E39.32102
G1 X78.428 Y101.431 E39.35924
G1 X78.223 Y101.998 E39.39677
G1 X78.047 Y102.615 E39.4367
G1 X77.921 Y103.19 E39.47334
G1 F960 X77.819 Y103.827 E39.51357
G1 X77.77 Y104.401 E39.54949
G1 X77.75 Y105.004 E39.58712
G1 F961.9 X77.769 Y105.616 E39.62523
G1 X77.821 Y106.155 E39.65893
G1 X77.922 Y106.815 E39.70048
G1 X78.059 Y107.432 E39.73982
G1 F960 X78.229 Y108.018 E39.77787
G1 X78.44 Y108.605 E39.81677
G1 F961.9 X78.681 Y109.156 E39.8542
G1 F960 X78.963 Y109.707 E39.8928
G1 F961.9 X79.274 Y110.232 E39.93078
G1 F960 X79.639 Y110.77 E39.97132
G1 X79.978 Y111.202 E40.00557
G1 F961.9 X80.403 Y111.683 E40.04552
G1 X80.822 Y112.102 E40.0824
G1 F963.9 X81.276 Y112.503 E40.12002
G1 F958.1 X82.108 Y113.128 E40.18505
G1 F956.2 X82.814 Y113.549 E40.23651
G1 F961.9 X83.36 Y113.826 E40.27462
G1 X83.923 Y114.07 E40.31281
G1 X84.489 Y114.274 E40.35025
G1 F960 X85.063 Y114.438 E40.38748
G1 X85.667 Y114.575 E40.4261
G1 X86.316 Y114.68 E40.4671
G1 X86.871 Y114.73 E40.50186
G1 F961.9 X87.517 Y114.75 E40.54208
G1 F923.1 X88.737 Y114.73 E40.62122
G1 F851.1 X89.331 Y114.706 E40.66304
M205 X10 Y10
G0 F6000 X89.527 Y114.742
G1 F1800 E34.66304
G1 F480 Z0.375
G0 F6000 X94.091 Y113.024 Z0.375
M205 X8 Y8
;TYPE:SKIN
G1 F480 Z0.3
G1 F1800 E40.66304
G1 F1200 X94.644 Y112.532 E40.69996
G1 X95.115 Y112.055 E40.73341
G1 X95.464 Y111.662 E40.75963
G1 X95.92 Y111.068 E40.79699
G1 X96.243 Y110.596 E40.82552
G1 X96.617 Y109.969 E40.86195
G1 X96.931 Y109.329 E40.89751
G1 X97.162 Y108.796 E40.92649
G1 X97.381 Y108.191 E40.9586
G1 X97.564 Y107.548 E40.99195
G1 X97.693 Y106.957 E41.02213
G1 X97.796 Y106.325 E41.05407
G1 X97.858 Y105.689 E41.08595
G1 X97.88 Y105.033 E41.1187
G1 X97.862 Y104.372 E41.15169
G1 X97.804 Y103.734 E41.18365
G1 X97.689 Y103.022 E41.21963
G1 X97.55 Y102.395 E41.25168
