;FLAVOR:Marlin
;TIME:6666
;Filament used: 2.38241m
;Layer height: 0.2
;MINX:85.509
;MINY:89
;MINZ:0.3
;MAXX:124.5
;MAXY:120.999
;MAXZ:107.9
;Generated with Cura_SteamEngine 5.4.0
M82 ;absolute extrusion mode
;Profil Homepage: https://github.com/NilsRo/Cura_Anycubic_MegaS_Profile

;Slicer Information - (Support for OctoPrint Slicer Estimator)
;Slicer info:material_guid;0ff92885-617b-4144-a03c-9989872454bc
;Slicer info:material_id;generic_pla_175
;Slicer info:material_brand;Generic
;Slicer info:material_name;PLA
;Slicer info:filament_cost;[0.0]
;Slicer info:material_bed_temperature;60
;Slicer info:material_bed_temperature_layer_0;60
;Slicer info:material_print_temperature;200
;Slicer info:material_print_temperature_layer_0;205
;Slicer info:material_flow;100
;Slicer info:layer_height;0.2
;Slicer info:machine_nozzle_size;0.4
;Slicer info:wall_thickness;1.2000000000000002
;Slicer info:speed_print;50.0
;Slicer info:speed_topbottom;25.0
;Slicer info:travel_speed;100.0
;Slicer info:support;0
;Slicer info:retraction_speed;30
;Slicer info:retraction_amount;6
;Slicer info:layer_height;0.2
;Slicer info:infill_pattern;grid
;Slicer info:infill_sparse_density;25
;Slicer info:cool_fan_enabled;True
;Slicer info:cool_fan_speed;100
;Slicer info:sliced_at;Mon 11-03-2024 16:12:07
G21                                        ; metric values 
G90                                        ; absolute positioning 
M82                                        ; set extruder to absolute mode 
M900 K0                                    ; disable lin. adv. if not set in GCODE
M107                                       ; start with the fan off 
M140 S60   ; Start heating the bed 
G4 S60                                     ; wait 1 minute 
M104 S205 ; start heating the hot end 
M190 S60   ; wait for bed 
M109 S205 ; wait for hotend 
M300 S1000 P500                            ; BEEP heating done 
G28 X0 Y10 Z0                              ; move X/Y to min endstops 
G29
;M420 S1                                    ; Enable leveling 
M420 Z2.0                                  ; Set leveling fading height to 2 mm 
G0 Z0.15                                   ; lift nozzle a bit 
G92 E0                                     ; zero the extruded length 
G1 X50 E20 F500                            ; Extrude 20mm of filament in a 5cm line. 
G92 E0                                     ; zero the extruded length again 
G1 E-2 F500                                ; Retract a little 
G1 X50 F500                                ; wipe away from the filament line
G1 X100 F9000                              ; Quickly wipe away from the filament line
G92 E0
G92 E0
G1 F1800 E-6
;LAYER_COUNT:539
;LAYER:0
M106 S76.5
M205 X10 Y10
G1 F480 Z0.375
G0 F6000 X90.375 Y93.513 Z0.375
M205 X8 Y8
;TYPE:SKIRT
G1 F480 Z0.3
G1 F1800 E0
G1 F1200 X91.08 Y92.872 E0.04754
G1 X91.961 Y92.169 E0.10377
G1 X92.725 Y91.632 E0.15036
G1 X93.604 Y91.093 E0.2018
G1 X94.442 Y90.65 E0.24909
G1 X95.519 Y90.17 E0.30792
G1 X96.475 Y89.825 E0.35862
G1 X97.306 Y89.569 E0.402
G1 X98.279 Y89.336 E0.45192
G1 X99.236 Y89.169 E0.50039
G1 X100.259 Y89.057 E0.55173
G1 X100.97 Y89.023 E0.58724
G1 X102.277 Y89 E0.65246
G1 X117.805 Y89 E1.42715
G1 X118.625 Y89.013 E1.46807
G1 X119.268 Y89.062 E1.50024
G1 X120.097 Y89.23 E1.54244
G1 X120.797 Y89.472 E1.57939
G1 X121.378 Y89.751 E1.61155
G1 X122.048 Y90.179 E1.65121
G1 X122.654 Y90.69 E1.69076
G1 X123.094 Y91.162 E1.72295
G1 X123.561 Y91.802 E1.76248
G1 X123.919 Y92.454 E1.79959
G1 X124.178 Y93.098 E1.83422
G1 X124.392 Y93.93 E1.87708
G1 X124.496 Y94.867 E1.92411
G1 X124.5 Y114.338 E2.89552
G1 X124.489 Y115.115 E2.93429
G1 X124.441 Y115.758 E2.96646
G1 X124.287 Y116.536 E3.00603
G1 X124.032 Y117.289 E3.04569
G1 X123.707 Y117.955 E3.08266
G1 X123.359 Y118.498 E3.11484
G1 X122.887 Y119.072 E3.15192
G1 X122.271 Y119.649 E3.19402
G1 X121.749 Y120.028 E3.22621
G1 X121.01 Y120.435 E3.2683
G1 X120.365 Y120.689 E3.30288
G1 X119.581 Y120.89 E3.34326
G1 X118.626 Y120.996 E3.3912
G1 X102.236 Y120.999 E4.2089
G1 X100.772 Y120.974 E4.28195
G1 X99.681 Y120.886 E4.33656
G1 X98.75 Y120.752 E4.38348
G1 X97.638 Y120.513 E4.44023
G1 X96.839 Y120.298 E4.48151
G1 X95.849 Y119.961 E4.53368
G1 X94.833 Y119.529 E4.58876
G1 X94.055 Y119.153 E4.63187
G1 X93.248 Y118.693 E4.67822
G1 X92.415 Y118.16 E4.72755
G1 X91.468 Y117.452 E4.78654
G1 X90.709 Y116.802 E4.8364
G1 X90.01 Y116.121 E4.88509
G1 X89.41 Y115.458 E4.9297
G1 X88.855 Y114.781 E4.97337
G1 X88.199 Y113.878 E5.02906
G1 X87.607 Y112.921 E5.0852
G1 X87.198 Y112.145 E5.12896
G1 X86.75 Y111.179 E5.18208
G1 X86.402 Y110.27 E5.23064
G1 X86.064 Y109.171 E5.28801
G1 X85.829 Y108.183 E5.33868
G1 X85.655 Y107.116 E5.39261
G1 X85.564 Y106.345 E5.43134
G1 X85.509 Y105.243 E5.48639
G1 X85.53 Y104.174 E5.53973
G1 X85.597 Y103.36 E5.58048
G1 X85.734 Y102.322 E5.63272
G1 X85.933 Y101.344 E5.68251
G1 X86.199 Y100.361 E5.73332
G1 X86.586 Y99.231 E5.79291
G1 X86.98 Y98.316 E5.84261
G1 X87.38 Y97.497 E5.88808
G1 X87.971 Y96.483 E5.94663
G1 X88.422 Y95.807 E5.98718
G1 X89.031 Y94.987 E6.03814
G1 X89.682 Y94.227 E6.08806
G1 X90.375 Y93.513 E6.1377
M205 X10 Y10
G0 F6000 X90.662 Y93.792
M205 X8 Y8
G1 F1200 X91.33 Y93.184 E6.18277
G1 X92.191 Y92.496 E6.23775
G1 X92.934 Y91.973 E6.28308
G1 X93.791 Y91.447 E6.33325
G1 X94.629 Y91.004 E6.38054
G1 X95.655 Y90.546 E6.4366
G1 X96.593 Y90.207 E6.48635
G1 X97.4 Y89.958 E6.52849
G1 X98.348 Y89.73 E6.57713
G1 X99.28 Y89.567 E6.62434
G1 X100.278 Y89.457 E6.67443
G1 X100.977 Y89.423 E6.70934
G1 X102.284 Y89.4 E6.77456
G1 X117.799 Y89.4 E7.54861
G1 X118.595 Y89.412 E7.58832
G1 X119.238 Y89.461 E7.6205
G1 X119.968 Y89.609 E7.65766
G1 X120.624 Y89.833 E7.69224
G1 X121.205 Y90.112 E7.7244
G1 X121.831 Y90.515 E7.76154
G1 X122.361 Y90.963 E7.79616
G1 X122.801 Y91.435 E7.82835
G1 X123.21 Y91.995 E7.86295
G1 X123.568 Y92.647 E7.90006
G1 X123.806 Y93.246 E7.93222
G1 X123.994 Y93.974 E7.96973
G1 X124.098 Y94.911 E8.01676
G1 X124.1 Y114.333 E8.98573
G1 X124.09 Y115.085 E9.02325
G1 X124.042 Y115.728 E9.05542
G1 X123.908 Y116.409 E9.09005
G1 X123.672 Y117.115 E9.12718
G1 X123.37 Y117.739 E9.16177
G1 X123.022 Y118.282 E9.19395
G1 X122.579 Y118.817 E9.2286
G1 X122.036 Y119.325 E9.2657
G1 X121.514 Y119.704 E9.29788
G1 X120.863 Y120.063 E9.33497
G1 X120.218 Y120.317 E9.36956
G1 X119.537 Y120.492 E9.40463
G1 X118.582 Y120.598 E9.45257
G1 X102.243 Y120.599 E10.26773
G1 X100.804 Y120.575 E10.33953
G1 X99.738 Y120.49 E10.39288
G1 X98.807 Y120.356 E10.43981
G1 X97.742 Y120.127 E10.49416
G1 X96.968 Y119.919 E10.53414
G1 X95.978 Y119.582 E10.58632
G1 X95.007 Y119.169 E10.63896
G1 X94.253 Y118.805 E10.68073
G1 X93.464 Y118.356 E10.72602
G1 X92.631 Y117.823 E10.77536
G1 X91.728 Y117.148 E10.83161
G1 X90.988 Y116.515 E10.88019
G1 X90.289 Y115.834 E10.92888
G1 X89.719 Y115.204 E10.97126
G1 X89.164 Y114.527 E11.01494
G1 X88.539 Y113.668 E11.06794
G1 X87.961 Y112.734 E11.12273
G1 X87.561 Y111.976 E11.16549
G1 X87.124 Y111.036 E11.21721
G1 X86.776 Y110.127 E11.26577
G1 X86.453 Y109.078 E11.32053
G1 X86.224 Y108.118 E11.36977
G1 X86.052 Y107.069 E11.4228
G1 X85.964 Y106.325 E11.46018
G1 X85.909 Y105.223 E11.51523
G1 X85.929 Y104.207 E11.56592
G1 X85.994 Y103.412 E11.60572
G1 X86.131 Y102.374 E11.65795
G1 X86.325 Y101.424 E11.70633
G1 X86.577 Y100.491 E11.75454
G1 X86.964 Y99.361 E11.81413
G1 X87.339 Y98.492 E11.86135
G1 X87.739 Y97.673 E11.90683
G1 X88.304 Y96.705 E11.96274
G1 X88.755 Y96.029 E12.00329
G1 X89.335 Y95.247 E12.05186
G1 X89.969 Y94.506 E12.10051
G1 X90.662 Y93.792 E12.15016
M205 X10 Y10
G0 F6000 X90.949 Y94.071
M205 X8 Y8
G1 F1200 X91.58 Y93.496 E12.19275
G1 X92.421 Y92.823 E12.24648
G1 X93.144 Y92.314 E12.2906
G1 X93.978 Y91.801 E12.33945
G1 X94.816 Y91.358 E12.38674
G1 X95.791 Y90.922 E12.44002
G1 X96.711 Y90.589 E12.48884
G1 X97.494 Y90.347 E12.52972
G1 X98.417 Y90.124 E12.5771
G1 X99.324 Y89.965 E12.62304
G1 X100.298 Y89.857 E12.67193
G1 X100.984 Y89.823 E12.70619
G1 X102.291 Y89.8 E12.77141
G1 X117.793 Y89.8 E13.54481
G1 X118.565 Y89.811 E13.58333
G1 X119.208 Y89.86 E13.6155
G1 X119.84 Y89.988 E13.64767
G1 X120.451 Y90.194 E13.67984
G1 X121.032 Y90.473 E13.712
G1 X121.574 Y90.822 E13.74416
G1 X122.068 Y91.236 E13.77631
G1 X122.508 Y91.708 E13.80851
G1 X122.886 Y92.23 E13.84066
G1 X123.196 Y92.795 E13.87281
G1 X123.434 Y93.394 E13.90497
G1 X123.596 Y94.018 E13.93713
G1 X123.7 Y94.955 E13.98417
G1 X123.7 Y114.328 E14.95069
G1 X123.691 Y115.055 E14.98696
G1 X123.643 Y115.698 E15.01913
G1 X123.516 Y116.33 E15.05129
G1 X123.311 Y116.942 E15.08349
G1 X123.033 Y117.523 E15.11563
G1 X122.685 Y118.066 E15.1478
G1 X122.272 Y118.561 E15.17996
G1 X121.801 Y119.001 E15.21212
G1 X121.279 Y119.38 E15.2443
G1 X120.715 Y119.691 E15.27644
G1 X120.116 Y119.93 E15.30861
G1 X119.493 Y120.094 E15.34075
G1 X118.538 Y120.2 E15.38869
G1 X102.25 Y120.199 E16.2013
G1 X100.835 Y120.176 E16.27191
G1 X99.795 Y120.094 E16.32395
G1 X98.864 Y119.96 E16.37088
G1 X97.846 Y119.741 E16.42283
G1 X97.097 Y119.54 E16.46152
G1 X96.107 Y119.203 E16.51369
G1 X95.181 Y118.809 E16.5639
G1 X94.427 Y118.445 E16.60567
G1 X93.68 Y118.019 E16.64857
G1 X92.847 Y117.486 E16.69791
G1 X91.988 Y116.844 E16.75141
G1 X91.267 Y116.228 E16.79872
G1 X90.568 Y115.547 E16.84741
G1 X90.028 Y114.95 E16.88757
G1 X89.487 Y114.291 E16.93011
G1 X88.879 Y113.457 E16.9816
G1 X88.315 Y112.547 E17.03502
G1 X87.924 Y111.807 E17.07677
G1 X87.498 Y110.893 E17.12708
G1 X87.15 Y109.984 E17.17564
G1 X86.842 Y108.985 E17.2278
G1 X86.619 Y108.053 E17.27561
G1 X86.449 Y107.022 E17.32774
G1 X86.364 Y106.305 E17.36376
G1 X86.309 Y105.203 E17.41881
G1 X86.328 Y104.239 E17.46691
G1 X86.391 Y103.464 E17.5057
G1 X86.528 Y102.426 E17.55794
G1 X86.717 Y101.504 E17.60489
G1 X86.963 Y100.595 E17.65187
G1 X87.331 Y99.519 E17.70861
G1 X87.698 Y98.667 E17.75489
G1 X88.085 Y97.874 E17.79891
G1 X88.637 Y96.927 E17.8536
G1 X89.088 Y96.251 E17.89414
G1 X89.639 Y95.507 E17.94033
G1 X90.256 Y94.785 E17.98771
G1 X90.949 Y94.071 E18.03735
M205 X10 Y10
G1 F1800 E12.03735
G1 F480 Z0.375
;MESH:AquariumEdgePlantHolder.stl
G0 F6000 X103.454 Y114.403 Z0.375
M205 X8 Y8
;TYPE:WALL-INNER
G1 F480 Z0.3
G1 F1800 E18.03735
G1 F1182.3 X103.595 Y114.391 E18.04452
M205 X10 Y10
G1 F1800 E12.04452
G1 F480 Z0.375
G0 F6000 X106.35 Y113.746 Z0.375
M205 X8 Y8
G1 F480 Z0.3
G1 F1800 E18.04452
G1 F1200 X105.852 Y114 E18.07241
G1 X117.5 Y114 E18.65353
G1 X117.5 Y96 E19.55156
G1 X105.911 Y96 E20.12973
G1 X106.828 Y96.537 E20.18275
G1 X107.397 Y96.924 E20.21708
G1 X107.903 Y97.316 E20.24901
G1 X108.323 Y97.687 E20.27697
G1 X108.775 Y98.137 E20.30879
G1 X109.189 Y98.604 E20.33993
G1 X109.602 Y99.139 E20.37365
G1 X109.915 Y99.596 E20.40128
G1 X110.265 Y100.186 E20.43551
G1 X110.529 Y100.701 E20.46438
G1 X110.882 Y101.505 E20.50819
G1 X111.182 Y102.493 E20.5597
G1 X111.328 Y103.153 E20.59343
G1 X111.417 Y103.709 E20.62152
G1 X111.482 Y104.399 E20.65609
G1 X111.5 Y105.024 E20.68729
G1 X111.479 Y105.655 E20.71879
G1 X111.42 Y106.261 E20.74916
G1 X111.33 Y106.836 E20.7782
G1 X111.198 Y107.439 E20.809
G1 X111.015 Y108.086 E20.84254
G1 X110.809 Y108.656 E20.87278
G1 X110.56 Y109.233 E20.90413
G1 X110.249 Y109.844 E20.93834
G1 X109.927 Y110.384 E20.9697
G1 X109.578 Y110.892 E21.00045
G1 X109.233 Y111.342 E21.02874
G1 X108.782 Y111.855 E21.06282
G1 X108.387 Y112.252 E21.09076
G1 X107.916 Y112.674 E21.12231
G1 X107.354 Y113.107 E21.1577
G1 X106.824 Y113.465 E21.18961
G1 X106.35 Y113.746 E21.2171
M205 X10 Y10
G1 F1800 E15.2171
G1 F480 Z0.375
G0 F6000 X104.484 Y114.124 Z0.375
M205 X8 Y8
G1 F480 Z0.3
G1 F1800 E21.2171
G1 F1176.5 X103.595 Y114.391 E21.26434
G1 X104.567 Y114.4 E21.3138
G1 F1200 X117.9 Y114.4 E21.97899
G1 X117.9 Y95.6 E22.91693
G1 X103.522 Y95.601 E23.63425
G1 X104.478 Y95.872 E23.68382
G1 X105.043 Y96.077 E23.71381
G1 X105.585 Y96.313 E23.7433
G1 X106.122 Y96.585 E23.77333
G1 X106.656 Y96.902 E23.80431
G1 X107.153 Y97.241 E23.83433
G1 X107.638 Y97.616 E23.86492
G1 X108.084 Y98.012 E23.89467
G1 X108.492 Y98.42 E23.92346
G1 X108.914 Y98.899 E23.95531
G1 X109.272 Y99.365 E23.98462
G1 X109.585 Y99.822 E24.01226
G1 X109.909 Y100.369 E24.04398
G1 X110.173 Y100.884 E24.07285
G1 X110.541 Y101.736 E24.11915
G1 X110.808 Y102.647 E24.16651
G1 X110.927 Y103.182 E24.19386
G1 X111.027 Y103.811 E24.22563
G1 X111.08 Y104.375 E24.25389
G1 X111.1 Y105.011 E24.28564
G1 X111.08 Y105.619 E24.31599
G1 X111.03 Y106.161 E24.34314
G1 X110.936 Y106.767 E24.37374
G1 X110.808 Y107.353 E24.40366
G1 X110.617 Y108.016 E24.43809
G1 X110.433 Y108.518 E24.46476
G1 X110.193 Y109.073 E24.49493
G1 X109.924 Y109.606 E24.52471
G1 X109.597 Y110.158 E24.55672
G1 X109.261 Y110.649 E24.58641
G1 X108.916 Y111.099 E24.6147
G1 X108.498 Y111.573 E24.64623
G1 X108.103 Y111.97 E24.67417
G1 X107.65 Y112.375 E24.70448
G1 X107.129 Y112.776 E24.73728
G1 X106.62 Y113.121 E24.76796
G1 X106.112 Y113.421 E24.79739
G1 X105.573 Y113.694 E24.82754
G1 X105.013 Y113.934 E24.85793
G1 X104.484 Y114.124 E24.88597
M205 X10 Y10
G1 F1800 E18.88597
G1 F480 Z0.375
G0 F6000 X102.964 Y114.173 Z0.375
M205 X8 Y8
;TYPE:WALL-OUTER
G1 F480 Z0.3
G1 F1800 E24.88597
G1 F916 X102.104 Y114.235 E24.94233
G1 F950.5 X101.505 Y114.25 E24.98007
G1 F961.9 X100.91 Y114.231 E25.01712
G1 F960 X100.345 Y114.179 E25.0525
G1 X99.756 Y114.084 E25.08971
G1 F961.9 X99.248 Y113.97 E25.12211
G1 X98.641 Y113.798 E25.16138
G1 X98.096 Y113.601 E25.19744
G1 X97.567 Y113.371 E25.23335
G1 X97.053 Y113.111 E25.2692
G1 X96.541 Y112.808 E25.30622
G1 F965.8 X96.058 Y112.476 E25.34256
G1 F967.7 X95.591 Y112.118 E25.37896
G1 F963.9 X95.164 Y111.74 E25.41438
G1 X94.745 Y111.32 E25.45123
G1 X94.363 Y110.886 E25.48714
G1 F961.9 X94.014 Y110.433 E25.52273
G1 X93.693 Y109.961 E25.55826
G1 X93.397 Y109.46 E25.59448
G1 F960 X93.133 Y108.943 E25.63068
G1 F967.7 X92.803 Y108.178 E25.68222
G1 F969.7 X92.534 Y107.277 E25.74027
G1 F963.9 X92.412 Y106.722 E25.77557
G1 X92.322 Y106.149 E25.81159
G1 X92.268 Y105.571 E25.84765
G1 F960 X92.25 Y105.002 E25.88315
G1 X92.269 Y104.429 E25.91891
G1 X92.32 Y103.857 E25.95472
G1 X92.411 Y103.283 E25.99096
G1 F961.9 X92.536 Y102.715 E26.02716
G1 X92.707 Y102.122 E26.06557
G1 X92.901 Y101.59 E26.10082
G1 X93.135 Y101.053 E26.13727
G1 X93.4 Y100.533 E26.1736
G1 X93.696 Y100.034 E26.20971
G1 X94.018 Y99.565 E26.24511
G1 F963.9 X94.375 Y99.101 E26.28148
G1 X94.756 Y98.668 E26.3173
G1 F961.9 X95.16 Y98.264 E26.35286
G1 X95.596 Y97.878 E26.3891
G1 X96.068 Y97.514 E26.4262
G1 X96.559 Y97.181 E26.46312
G1 X97.057 Y96.887 E26.49912
G1 X97.572 Y96.626 E26.53505
G1 X98.106 Y96.396 E26.57124
G1 F960 X98.637 Y96.205 E26.60643
G1 F961.9 X99.229 Y96.031 E26.64483
G1 X99.761 Y95.915 E26.67872
G1 F960 X100.325 Y95.825 E26.71434
G1 F961.9 X100.913 Y95.769 E26.7511
G1 F960 X101.507 Y95.75 E26.78816
G1 F950.5 X102.086 Y95.764 E26.82464
G1 F916 X102.675 Y95.805 E26.86323
G1 F854.1 X103.246 Y95.873 E26.90354
G1 F973.6 X103.728 Y96.075 E26.93567
G1 F1200 X104.343 Y96.249 E26.96756
G1 X104.884 Y96.444 E26.99625
G1 X105.405 Y96.671 E27.0246
G1 X105.918 Y96.929 E27.05325
G1 X106.431 Y97.233 E27.083
G1 X106.909 Y97.559 E27.11187
G1 X107.373 Y97.916 E27.14108
G1 X107.801 Y98.295 E27.1696
G1 X108.218 Y98.712 E27.19902
G1 X108.597 Y99.143 E27.22765
G1 X108.942 Y99.591 E27.25586
G1 X109.262 Y100.06 E27.28419
G1 X109.553 Y100.551 E27.31266
G1 X109.822 Y101.077 E27.34214
G1 X110.149 Y101.825 E27.38287
G1 X110.418 Y102.733 E27.43011
G1 X110.538 Y103.28 E27.45805
G1 X110.629 Y103.849 E27.4868
G1 X110.682 Y104.413 E27.51506
G1 X110.7 Y104.999 E27.54431
G1 X110.682 Y105.582 E27.57341
G1 X110.63 Y106.137 E27.60122
G1 X110.54 Y106.706 E27.62996
G1 X110.414 Y107.28 E27.65928
G1 X110.246 Y107.865 E27.68965
G1 X110.053 Y108.391 E27.7176
G1 X109.821 Y108.925 E27.74665
G1 X109.561 Y109.436 E27.77525
G1 X109.267 Y109.932 E27.80402
G1 X108.943 Y110.405 E27.83262
G1 X108.589 Y110.866 E27.86162
G1 X108.214 Y111.291 E27.8899
G1 X107.81 Y111.696 E27.91844
G1 X107.384 Y112.076 E27.94692
G1 X106.904 Y112.445 E27.97712
G1 X106.416 Y112.777 E28.00657
G1 X105.942 Y113.058 E28.03406
G1 X105.414 Y113.326 E28.0636
G1 X104.877 Y113.558 E28.09278
G1 X104.37 Y113.74 E28.11966
